themes/asg/static/images/tickets-bg.svg

<svg width="361" height="67" viewBox="0 0 361 67" fill="none" xmlns="http://www.w3.org/2000/svg">
<path d="M198.839 37.5917L160.4 1H322.275L360.188 37.9375V64.4379H198.839V37.5917Z" fill="#0020F5"/>
<path d="M2 29.1009V2H322.677L358.663 37.6379V64.4379H37.8356L2 29.1009Z" stroke="white" stroke-width="4"/>
<path d="M161.5 1.43799L198.839 38.4375V64.438" stroke="white" stroke-width="4"/>
</svg>

<svg width="361" height="67" fill="none" xmlns="http://www.w3.org/2000/svg"><path d="M198.839 37.592L160.4 1h161.875l37.913 36.938v26.5H198.839V37.592z" fill="#0020F5"/><path d="M2 29.1V2h320.677l35.986 35.638v26.8H37.836L2 29.1z" stroke="#fff" stroke-width="4"/><path d="M161.5 1.438l37.339 37v26" stroke="#fff" stroke-width="4"/></svg>
